outputs/icons/action/ios_share_round.svg

<svg width="1200" height="1200" viewBox="0 0 1200 1200" fill="none" xmlns="http://www.w3.org/2000/svg"><g clip-path="url(#clip0_231_5370)"><path fill-rule="evenodd" d="M649.995 750C649.995 777.5 627.495 800 599.995 800C572.495 800 549.995 777.5 549.995 750V249.998H460.497C437.997 249.998 426.997 222.998 442.497 207.498L581.995 67.998C591.995 57.998 607.495 57.998 617.495 67.998L756.995 207.498C772.995 222.998 761.995 249.998 739.495 249.998H649.995V750ZM800 400H900C955 400 1000 445 1000 500V1050C1000 1105 955 1150 900 1150H300C245 1150 200 1105 200 1050V500C200 445 245 400 300 400H400C427.5 400 450 422.5 450 450C450 477.5 427.5 500 400 500H300V1050H900V500H800C772.5 500 750 477.5 750 450C750 422.5 772.5 400 800 400Z" fill="#1D1E23"/></g><defs><clipPath id="clip0_231_5370"><path width="24" fill="white" d="M0 0H1200V1200H0V0z"/></clipPath></defs></svg>

<svg xmlns="http://www.w3.org/2000/svg" width="1200" height="1200" fill="none"><g fill="#000" clip-path="url(#a)"><path d="M649.995 750c0 27.5-22.5 50-50 50s-50-22.5-50-50V249.998h-89.498c-22.5 0-33.5-27-18-42.5l139.498-139.5c10-10 25.5-10 35.5 0l139.5 139.5c16 15.5 5 42.5-17.5 42.5h-89.5z"/><path d="M800 400h100c55 0 100 45 100 100v550c0 55-45 100-100 100H300c-55 0-100-45-100-100V500c0-55 45-100 100-100h100c27.5 0 50 22.5 50 50s-22.5 50-50 50H300v550h600V500H800c-27.5 0-50-22.5-50-50s22.5-50 50-50"/></g><defs><clipPath id="a"><path fill="#fff" d="M0 0h1200v1200H0z"/></clipPath></defs></svg>
